X:1
T:Yiddish
T:Trad. arr. Wim Verkaik
T:Mayn Yingele
%%score 1 2 3 4
L:1/8
Q:1/4=73
M:2/4
K:C
V:1 treble nm="MusicXML Part"
V:2 treble nm="MusicXML Part"
V:3 treble-8 nm="MusicXML Part"
V:4 bass nm="MusicXML Part"
V:1
 z4 | z4 | z4 | z4 | z4 | z4 | z4 | z4 | z4 | z4 | z4 | z4 | z4 | z4 | z4 | z4 | z2 z E | AA AA | %18
w: ||||||||||||||||Di|ar- bet traybt mich|
 ^G/F/ E2 E | FE FA | ^G3 E | AE AB | c/B/ A2 A | cA ce | B3 d | dB ^GE | c/B/ A2 A | ^GA Bc | %28
w: fri a- roys, un|lozt mich spet tsu-|rik. O|fremd is mir mayn|ey- gn layb, mayn|ey- gn kind's a|blik. Ich|kum tsu klem- ter-|hayd a- heym in|fin- ster- nish ge-|
 B3 d | dB ^GE | c/B/ A2 z/ A/ |"^rit." ^GD EF | E3 z |[Q:1/4=60] [A^c]4 | [Bd-]4 | [cd]4 | %36
w: hilt, mayn|ble- che froyd er-|tseylt mir bald vi|fayn dos kind zich|shpilt.|Ooh|_||
 [Be]3 z | [A^c]2 [^FB]2 | [GA]3 z | [cd-]4 | [B-d]4 | [Be]2 [^Gd]2 | [Ac]3 z | [Be-]2 [de]2 | %44
w: ||||||||
 [A^d]3 z | [Be]4 |"^rit." [Ac]3 z | [B-d]4 | !fermata![Be]4 |] %49
w: |||||
V:2
 z4 | z4 | z4 | z4 | z4 | z4 | z4 | z4 | z4 | z4 | z4 | z4 | z4 | z4 | z4 | z4 | z2 z D | EF AF | %18
w: ||||||||||||||||Di|ar- bet traybt mich|
 E/F/ E2 E | CB, FF | E3 E | CE DF | G/F/ E2 E | EE F^F | ^G3 G | E2 D2 | E3 E | D2 _E2 | E4 | %29
w: fri a- roys, un|lozt mich spet tsu-|rik. O|fremd is mir mayn|ey- gn layb, mayn|ey- gn kind's a|blik. Ich|kum tsu|heym in|fin- ster-|nish|
 ^F2 ^G2 | A3 z/ A/ | DB, CD | E3 z | E4 | ^G4 | A4 | ^G3 z | E2 ^D2 | E3 z | A2 G2 | ^F4 | %41
w: tseylt mir|bald vi|fayn dos kind zich|shpilt.|Ooh|_|||||||
 ^G2 E2 | G3 z | E4 | ^F3 z | ^G4 | G3 z | ^G4 | A2 !fermata!^G2 |] %49
w: ||||||||
V:3
 z2 z E | AA AA | ^G/F/ E2 E | FE FA | ^G3 E | AE AB | c/B/ A2 A | cA ce | B3 d | dB ^GE | %10
w: Ich|hob a kley- nem|yin- ge- le, a|zu- ne- le gor|fayn. Ven|ich der ze im|dacht sich mir, di|gant- se velt ist|mayn! Nor|zel- tn, zel- tn|
 c/B/ A2 A | ^GA Bc | B3 d | dB ^GE | c/B/ A2 z/ A/ | ^GD EF | E2 z B | cc cc | B/B/ B2 d | AG Ac | %20
w: ze ich im, mayn|shey- nem, ven er|vacht. Ich|tref im i- mer|schlo- fn- dig, ich|ze im nor bay|nacht. Di|ar- bet traybt mich|fri a- roys, un|lozt mich spet tsu-|
 B3 B | AB dB | c/d/ e2 d | cc Ac | B3 B | B2 B2 | c3 c | B2 A2 | B4 | d2 B2 | e3 z/ A/ | ^F2 ED | %32
w: rik. O|fremd is mir mayn|ey- gn layb, mayn|ey- gn kind's a|blik. Ich|kum tsu|heym in|fin- ster-|nish|tseylt mir|bald vi|fayn dos kind|
 E3 z | e4- | e4 | f4 | e3 z | A2 B2 | c3 z | d4- | d4 | e4 | e3 z | e4 | B3 z | e4- | e3 z | f4 | %48
w: shpilt.|Ooh|_||||||||||||||
 !fermata!e4 |] %49
w: |
V:4
 z2 z E, | A,A, A,A, | ^G,/F,/ E,2 E, | F,E, F,A, | ^G,3 E, | A,E, A,B, | C/B,/ A,2 A, | CA, CE | %8
w: Ich|hob a kley- nem|yin- ge- le, a|zu- ne- le gor|fayn. Ven|ich der ze im|dacht sich mir, di|gant- se velt ist|
 B,3 D | DB, ^G,E, | C/B,/ A,2 A, | ^G,A, B,C | B,3 D | DB, ^G,E, | C/B,/ A,2 z/ A,/ | ^G,D, E,F, | %16
w: mayn! Nor|zel- tn, zel- tn|ze ich im, mayn|shey- nem, ven er|vacht. Ich|tref im i- mer|schlo- fn- dig, ich|ze im nor bay|
 E,2 z E, | E,D, E,F, | E,/D,/ E,2 E, | A,,B,, C,D, | E,3 E, | F,F, G,G, | C,/C,/ C,2 B,, | %23
w: nacht. Di|ar- bet traybt mich|fri a- roys, un|lozt mich spet tsu-|rik. O|fremd is mir mayn|ey- gn layb, mayn|
 A,,A,, D,D, | E,3 E, | ^F,2 ^G,2 | A,3 A, | E,2 ^F,2 | ^G,4 | B,2 E,2 | A,3 z/ A,,/ | B,,2 A,,2 | %32
w: ey- gn kind's a|blik. Ich|kum tsu|heym in|fin- ster-|nish|tseylt mir|bald vi|dos kind|
 E,3 E, | A,A, A,A, | ^G,/F,/ E,2 E, | F,E, F,A, | ^G,3 E, | A,E, A,B, | C/B,/ A,2 A, | CA, CE | %40
w: shpilt. Ich|sthey bay zayn ge-|le- ge- rl, un|her un ze un|sha, a|troym ba- vegt di|li- pe- lech: O|vu iz, vu iz|
 B,3 D | DB, ^G,E, | C/B,/ A,2 A, | ^G,A, B,C | B,3 D | DB, ^G,E, | C/B,/ A,2 z/ A,/ | ^G,D, E,F, | %48
w: Pa? Ich|blayb tsu- vey- togt|un tsu- klemt, far-|bi- tert un ich|kler: Ven|du er- vachst a-|mol mayn kind, ge-|fins- tu mich nit|
 !fermata!E,4 |] %49
w: mer.|

